!!!OTL: Satyre auf das Papstthum. (1547.)
!!!ARE: Europa, Mitteleuropa, Deutschland
!!!SCT: A0403
!!!TXL: @@DE
!!!YEM: Copyright 1995, estate of Helmut Schaffrath.
**kern	**text
*M4/2	*
*met(c|)	*
*clefC4	*
*k[b-]	*
*g:dor	*
=1	=1
!LO:TX:a:t=dor. tr.	!
2ryy	.
{2G	Ich
2d	wil
2d	fürt-
=2	=2
2d	-hin
2c	gut
2d	Bep-
2B-	-ſtiſch
=3	=3
1A	ſein,
2r}	.
{2A	des
=4	=4
2c	Lu-
2c	-thers
2B-	ler
2G	ver-
=5	=5
1A	-ach-
1G	-ten,}
=6	=6
2r}	.
{2G	Nach
2d	gu-
2d	-ten
=7	=7
2d	ta-
2c	-gen
2d	wil
2B-	ich
=8	=8
1A	mir
2r}	.
{2A	vnd
=9	=9
2c	gu-
2c	-ten
2B-	pfründen
2G	.
=10	=10
1A	trach-
1G	-ten,}
=11	=11
2r}	.
{2G	nach
2A	ʒinß
2B-	vnd
=12	=12
1c	rent
2r	.
2A	ſtet
=13	=13
2B-	mein
2c	in-
1d	-tent,
=14	=14
2r}	.
{2f	wenn
2e	ich
2d	die
=15	=15
1c	het,
2r	.
2B-	ſo
=16	=16
2A/	könt
2G	ich
1F	ſtet
=17	=17
2r}	.
{2c	in
2A	lüſt
2F	und
=18	=18
2f	freu-
2d	-den
1c	le-
=19	=19
1B-	-ben,
2r}	.
{2B-	wo
=20	=20
2d	nach
2B-	ſolt
*lig	*
4c	ich
4B-	.
4A	.
4G	.
=21	=21
2F#	.
*Xlig	*
2G	ſonſt
1A	ſtre-
=22	=22
0G/ll}	-ben?
==	==
!!!GTL: Einige historisch-politische Lieder
!!!AGN: Romanze, Ballade, Lied, religioeses Lied
!! Forster IV. 1556 No. 28
!!!ONB: ESAC (Essen Associative Code) Database: ALTDEU
!!!AMT: simple quadruple
!!!AIN: vox
!!!EED: Helmut Schaffrath
!!!EEV: 1.0
!!!RDF**kern: l = terminal long
!!!AMD: Dorian
!!!URL-scan: https://rosdok.uni-rostock.de/mcrviewer/recordIdentifier/rosdok_ppn738218359/iview2/phys_0574.iview2?x=59.00495830516138&y=902.1474999100901&scale=0.7083010262257697&rotation=0&layout=singlePageLayout
!!!ENC: Anna Maria Matuszewska
!!!EEV: 2024/15/03
*-	*-
